X: 34785
T: Road To Skye, The
R: jig
M: 6/8
K: Gmajor
D|GFG EGD|GBd e2d|gBB BAB|cBc E2F|
GFG EGD|GBd e2d|gBB BAB|cEF G2:|
|:D|GBd GBd|GBd cAF|GBd efg|fdd def|
g3 f3|efe d2B|cBc ABc|BGG G2:|

